lib/svgs/team-tie.svg

<?xml version="1.0" encoding="UTF-8"?>
<svg width="16px" height="16px" viewBox="0 0 16 16" version="1.1" xmlns="http://www.w3.org/2000/svg" xmlns:xlink="http://www.w3.org/1999/xlink">
    <!-- Generator: sketchtool 51.3 (57544) - http://www.bohemiancoding.com/sketch -->
    <title>team/team-tie</title>
    <desc>Created with sketchtool.</desc>
    <defs></defs>
    <g id="Icons" stroke="none" stroke-width="1" fill="none" fill-rule="evenodd">
        <g id="Web" transform="translate(-435.000000, -2444.000000)" fill="#000000">
            <g id="team/team-tie" transform="translate(435.000000, 2444.000000)">
                <path d="M11.3571039,11.6173913 L9.23945681,5.35652174 C9.16886858,5.07826087 8.88651564,4.86956522 8.60416269,4.86956522 L5.78063328,4.86956522 C5.49828034,4.86956522 5.2159274,5.07826087 5.14533917,5.35652174 L3.02769211,11.6173913 C2.95710387,11.8956522 3.02769211,12.173913 3.16886858,12.3130435 L6.69828034,15.7913043 C6.83945681,15.9304348 7.05122152,16 7.19239799,16 C7.33357446,16 7.54533917,15.9304348 7.68651564,15.7913043 L11.2159274,12.3130435 C11.4276921,12.1043478 11.4982803,11.826087 11.3571039,11.6173913 L11.3571039,11.6173913 M14.110045,7.93043478 L11.2159274,4.8 C10.9335745,4.52173913 10.510045,4.8 10.6512215,5.14782609 L12.4159274,10.0173913 C12.4865156,10.2956522 12.8394568,10.3652174 12.9806333,10.1565217 L14.110045,8.83478261 C14.3218098,8.55652174 14.3218098,8.13913043 14.110045,7.93043478 L14.110045,7.93043478 M5.2159274,3.2 C5.35710387,3.33913043 5.56886858,3.47826087 5.78063328,3.47826087 L8.60416269,3.47826087 C8.8159274,3.47826087 9.02769211,3.33913043 9.16886858,3.2 L10.5806333,1.11304348 C10.7218098,0.904347826 10.7218098,0.626086957 10.5806333,0.417391304 C10.510045,0.139130435 10.2982803,0 10.0159274,0 L4.36886858,0 C4.08651564,0 3.87475093,0.139130435 3.73357446,0.347826087 C3.59239799,0.556521739 3.59239799,0.834782609 3.73357446,1.04347826 L5.2159274,3.2 L5.2159274,3.2" id="Shape"></path>
            </g>
        </g>
    </g>
</svg>

<svg xmlns="http://www.w3.org/2000/svg" viewBox="0 0 16 16">
    <path d="M11.357 11.617L9.24 5.357a.676.676 0 0 0-.635-.487H5.781a.676.676 0 0 0-.636.487l-2.117 6.26c-.07.279 0 .557.14.696l3.53 3.478c.141.14.353.209.494.209.142 0 .353-.07.495-.209l3.529-3.478c.212-.209.282-.487.141-.696M14.11 7.93L11.216 4.8c-.282-.278-.706 0-.565.348l1.765 4.87c.07.278.423.347.565.139l1.129-1.322c.212-.278.212-.696 0-.905M5.216 3.2c.141.14.353.278.565.278h2.823c.212 0 .424-.139.565-.278l1.412-2.087a.624.624 0 0 0 0-.696C10.51.14 10.298 0 10.016 0H4.369a.744.744 0 0 0-.635.348.624.624 0 0 0 0 .695L5.216 3.2"/>
</svg>
